icons/src/fluent/svg/backpack_24_regular.svg

<svg width="24" height="24" viewBox="0 0 24 24" fill="none" xmlns="http://www.w3.org/2000/svg">
<path d="M10.4167 8C9.08198 8 8 9.08198 8 10.4167C8 11.2911 8.70888 12 9.58333 12H14.4167C15.2911 12 16 11.2911 16 10.4167C16 9.08198 14.918 8 13.5833 8H10.4167ZM9.5 10.4167C9.5 9.91041 9.91041 9.5 10.4167 9.5H13.5833C14.0896 9.5 14.5 9.91041 14.5 10.4167C14.5 10.4627 14.4627 10.5 14.4167 10.5H9.58333C9.53731 10.5 9.5 10.4627 9.5 10.4167ZM12 2C10.0387 2 8.4291 3.50566 8.26396 5.42415C5.72794 6.76594 4 9.43118 4 12.5V18.75C4 20.5449 5.45507 22 7.25 22H16.75C18.5449 22 20 20.5449 20 18.75V12.5C20 9.43118 18.2721 6.76594 15.736 5.42415C15.5709 3.50566 13.9613 2 12 2ZM18.5 14H5.5V12.5C5.5 8.91015 8.41015 6 12 6C15.5899 6 18.5 8.91015 18.5 12.5V14ZM8 17.25C8 17.6642 8.33579 18 8.75 18C9.16421 18 9.5 17.6642 9.5 17.25V15.7143H18.5V18.75C18.5 19.7165 17.7165 20.5 16.75 20.5H7.25C6.2835 20.5 5.5 19.7165 5.5 18.75V15.7143H8V17.25ZM12 4.5C11.3023 4.5 10.6255 4.58931 9.98036 4.75712C10.3472 4.0124 11.1137 3.5 12 3.5C12.8863 3.5 13.6528 4.0124 14.0196 4.75712C13.3745 4.58931 12.6977 4.5 12 4.5Z" fill="#212121"/>
</svg>

<svg width="24" height="24" fill="none" viewBox="0 0 24 24" xmlns="http://www.w3.org/2000/svg"><path d="M10.417 8A2.417 2.417 0 0 0 8 10.417C8 11.29 8.709 12 9.583 12h4.834C15.29 12 16 11.291 16 10.417A2.417 2.417 0 0 0 13.583 8h-3.166ZM9.5 10.417c0-.507.41-.917.917-.917h3.166c.507 0 .917.41.917.917a.083.083 0 0 1-.083.083H9.583a.083.083 0 0 1-.083-.083Z" fill="#212121"/><path d="M12 2a3.75 3.75 0 0 0-3.736 3.424A7.999 7.999 0 0 0 4 12.5v6.25A3.25 3.25 0 0 0 7.25 22h9.5A3.25 3.25 0 0 0 20 18.75V12.5a7.999 7.999 0 0 0-4.264-7.076A3.75 3.75 0 0 0 12 2Zm6.5 12h-13v-1.5a6.5 6.5 0 0 1 13 0V14ZM8 17.25a.75.75 0 0 0 1.5 0v-1.536h9v3.036a1.75 1.75 0 0 1-1.75 1.75h-9.5a1.75 1.75 0 0 1-1.75-1.75v-3.036H8v1.536ZM12 4.5c-.698 0-1.374.09-2.02.257a2.25 2.25 0 0 1 4.04 0A8.013 8.013 0 0 0 12 4.5Z" fill="#212121"/></svg>
